X: 1
T: Lift Your Glass To The Landlady
M: 4/4
L: 1/8
R: reel
K: Gmin
|:dcBd cBAc|BAGB AG^FD|DGAB BAGB|ABAG ^FD (3DDD|
dcBd cBAc|BAGB AG^FD|DGAB BAGB|1AG^FD G2 Bc:|2AG^FD G2 G^F||
|:=E=B (3BBB BAGB|A=BAG ^FD=EF|=E=B (3BBB BAGB|AG^FD =E2 EF|
=E=B (3BBB FB (3BBB|=E=B (3BBB BAGB|=E=B (3BBB BAGB|AG^FD =E2 GF:|
|:DE^FG ABAG|^FDFA dAFD|DGGA BGAG|ABAG ^FD (3DDD|
DE^FG ABAG|^FDFA DAFD|BAGB AG^FD|1EGG^F G2 FD:|2EGG^F G2Bc||
